!!!!SEGMENT: Con2009-Sancta_Maria_mater_Dei.krn
!!!id: Con2009
!!!AGN: Motet
!!!voices: 4
!!!COM: Jean Conseil
!!!OTL: Sancta Maria, mater Dei
**kern	**kern	**kern	**kern
*part4	*part3	*part2	*part1
*staff4	*staff3	*staff2	*staff1
*I"Bassus	*I"Tenor	*I"Altus	*I"Superius
*I'B	*I'T	*I'A	*I'S
*clefF4	*clefG2	*clefG2	*clefG2
*k[]	*k[]	*k[]	*k[]
*C:	*C:	*C:	*C:
*M2/1	*M2/1	*M2/1	*M2/1
*met(C|)	*met(C|)	*met(C|)	*met(C|)
!!Section: Prima pars: Sancta Maria, mater Dei
!!!OMD: Prima pars: Sancta Maria, mater Dei
=1	=1	=1	=1
1r	1.d	0r	0r
[1G	.	.	.
.	2d	.	.
=2	=2	=2	=2
2G]	1d	0r	0r
2G	.	.	.
1G	1e	.	.
=3	=3	=3	=3
1A	1f	1r	0r
1B	2.g	[1g	.
.	4f	.	.
=4	=4	=4	=4
1c	4e	2g]	1.cc
.	4d	.	.
.	2e	2g	.
2r	2c	1g	.
2C	2e	.	2cc
=5	=5	=5	=5
2F	2f	1a	1cc
2A	2e	.	.
1G	1g	1b	1dd
=6	=6	=6	=6
2C	2r	2r	1ee
2.c	2e	2g	.
.	[1e	2g	2r
4B	.	.	.
4A	.	[2a	2cc
4G	.	.	.
=7	=7	=7	=7
1A	2e]	4a]	1cc
.	.	4b	.
.	2c	1cc	.
1G	[1g	.	1dd
.	.	2b	.
=8	=8	=8	=8
0C	1g]	1cc	0ee
.	2r	4cc	.
.	.	4b	.
.	[2g	4a	.
.	.	4g	.
=9	=9	=9	=9
1r	2g]	1a	0r
.	2f	.	.
2r	[1e	[1g	.
[2c	.	.	.
=10	=10	=10	=10
2c]	2e]	1g]	0r
2B	2d	.	.
1A	2e	1cc	.
.	2c	.	.
=11	=11	=11	=11
2G	2d	2b	2r
2F	2A	1a	1cc
1E	1e	.	.
.	.	2g	2b
=12	=12	=12	=12
4F	0c	2f	1a
4G	.	.	.
4A	.	1e	.
4B	.	.	.
2c	.	.	2g
[2A	.	[2cc	2f
=13	=13	=13	=13
2A]	2r	2cc]	1e
2G	2B	2b	.
1F	2.c	1a	2r
.	.	.	[2cc
.	4d	.	.
=14	=14	=14	=14
2E	2e	2g	2cc]
2D	2f	2f	2b
2C	[1g	2.e	2cc
[2c	.	.	[2ee
.	.	4d	.
=15	=15	=15	=15
2c]	2g]	4e	2ee]
.	.	4f	.
2B	2g	1g	2dd
1A	2.c	.	1cc
.	.	2f#i	.
.	4d	.	.
=16	=16	=16	=16
2G	2e	2g	4b
.	.	.	4g
2F	2f	2a	1cc
1G	1d	[1g	.
.	.	.	2b
=17	=17	=17	=17
2r	0c	1g]	0cc
2.C	.	.	.
.	.	2r	.
4D	.	.	.
4E	.	2g	.
4F	.	.	.
=18	=18	=18	=18
4G	0r	1g	0r
4A	.	.	.
4B	.	.	.
4G	.	.	.
4A	.	2f	.
4B	.	.	.
[2c	.	2e	.
=19	=19	=19	=19
4c]	1r	2.d	0r
8BL	.	.	.
8AJ	.	.	.
4B	.	.	.
4c	.	4e	.
1F	2r	4f	.
.	.	4g	.
.	2cc	[2a	.
=20	=20	=20	=20
2r	1cc	4a]	1r
.	.	4g	.
2c	.	1g	.
2.d	2b	.	2r
.	2a	2f#i	2dd
4c	.	.	.
=21	=21	=21	=21
2B	4g	1g	1dd
.	4a	.	.
2G	4b	.	.
.	4g	.	.
2A	2a	2r	2cc
2B	[2g	[2d	2b
=22	=22	=22	=22
2c	2g]	2d]	2.a
2d	2f	2f	.
.	.	.	4b
1c	1g	2e	4cc
.	.	.	4dd
.	.	2c	[2ee
=23	=23	=23	=23
2r	1c	2.g	4ee]
.	.	.	4dd
2c	.	.	4cc
.	.	4f	4b
1c	2r	4e	2a
.	.	4d	.
.	2g	2e	2cc
=24	=24	=24	=24
2B	1g	1d	1dd
2G	.	.	.
2A	2f	1r	1r
2B	2d	.	.
=25	=25	=25	=25
1c	2.e	1r	2r
.	.	.	2cc
.	4f	.	.
1C	1g	2r	1cc
.	.	2g	.
=26	=26	=26	=26
0r	1e	1g	2b
.	.	.	2g
.	1d	2f	2a
.	.	2d	2b
=27	=27	=27	=27
2r	1r	2.e	1.cc
2c	.	.	.
.	.	4f	.
1c	2r	2g	.
.	2g	2e	2cc
=28	=28	=28	=28
2B	2.g	1d	2dd
2G	.	.	1ee
.	4f	.	.
2A	2e	2r	.
2B	2d	[2g	2dd
=29	=29	=29	=29
1c	2e	2g]	1cc
.	2e	2g	.
1G	1d	1g	1b
=30	=30	=30	=30
0C	0e	0g	0cc
=31	=31	=31	=31
1G	1d	1.g	1.b
1E	1e	.	.
.	.	2g	2b
=32	=32	=32	=32
1F	1.c	1f	1.a
1A	.	1e	.
.	2c	.	[2cc
=33	=33	=33	=33
0G	0d	0g	2cc]
.	.	.	4b
.	.	.	4a
.	.	.	1b
=34	=34	=34	=34
0C	0e	0g	0cc
=35	=35	=35	=35
1.G	1d	1.g	1b
.	1e	.	2b
2E	.	2g	[2cc
=36	=36	=36	=36
2F	2c	2a	2cc]
2G	1e	1g	2b
1A	.	.	1cc
.	2c	2f#i	.
=37	=37	=37	=37
1G	2d	0g	0b
.	1e	.	.
2r	.	.	.
2G	2d	.	.
=38	=38	=38	=38
1.c	[0e	2r	0r
.	.	2g	.
.	.	[1cc	.
2B	.	.	.
=39	=39	=39	=39
2A	1e]	2cc]	2r
2G	.	2b	2g
2F	2r	2a	[1cc
2E	2c	2g	.
=40	=40	=40	=40
1D	1.f	2a	2cc]
.	.	2f	2b
1C	.	1cc	2a
.	2e	.	2g
=41	=41	=41	=41
0r	2d	0r	2f
.	2c	.	2e
.	2.f	.	1d
.	4g	.	.
=42	=42	=42	=42
0r	4a	2r	1c
.	4f	.	.
.	1g	2cc	.
.	.	2b	1d
.	2f	2a	.
=43	=43	=43	=43
0r	2g	4g	1e
.	.	4a	.
.	2g	4b	.
.	.	4cc	.
.	2f	2dd	1r
.	2e	[2cc	.
=44	=44	=44	=44
0r	4d	2cc]	2r
.	4e	.	.
.	4f	2b	2dd
.	4g	.	.
.	2a	2cc	2cc
.	[2g	[2dd	2b
=45	=45	=45	=45
0r	2g]	4dd]	4a
.	.	4cc	4b
.	2f	2a	4cc
.	.	.	4dd
.	1g	1b	2ee
.	.	.	[2dd
=46	=46	=46	=46
2r	1e	0g	2dd]
2c	.	.	2cc#i
2.B	[1d	.	[1dd
4A	.	.	.
=47	=47	=47	=47
4G	1d]	2r	1dd]
4A	.	.	.
4B	.	2g	.
4c	.	.	.
2d	1r	2f	1r
[2c	.	2e	.
=48	=48	=48	=48
2c]	0r	4d	2r
.	.	4e	.
2B	.	4f	2dd
.	.	4g	.
2c	.	2a	2cc
2G	.	[2g	2b
=49	=49	=49	=49
1d	2r	2g]	1a
.	2f	2f#i	.
1G	2e	1g	4b
.	.	.	4cc
.	2d	.	4dd
.	.	.	4b
=50	=50	=50	=50
0r	2c	0r	4cc
.	.	.	4b
.	2e	.	4a
.	.	.	4g
.	2d	.	1a
.	[2f	.	.
=51	=51	=51	=51
1c	2f]	1r	1g
.	2e	.	.
2B	2d	2r	2r
2A	2c	[2cc	[2ee
=52	=52	=52	=52
4G	1g	2cc]	2ee]
4A	.	.	.
4B	.	2b	2.dd
4c	.	.	.
2d	2f	1a	.
.	.	.	4b
[2c	2e	.	4cc
.	.	.	4dd
=53	=53	=53	=53
2c]	2c	1.g	2ee
2B	2d	.	2.dd
2c	2e	.	.
.	.	.	4cc
2F	2f	2a	[2cc
=54	=54	=54	=54
1G	1d	1g	2cc]
.	.	.	2b
[1A	[1c	[1e	[1cc
=55	=55	=55	=55
1A]	1c]	1e]	1cc]
[1F	[1c	[1f	[1a
=56	=56	=56	=56
2F]	2c]	2f]	2a]
2F	2c	2f	2a
1F	1c	1f	1a
=57	=57	=57	=57
1C	1e	1g	1cc
[1G	[1d	[1g	[1b
=58	=58	=58	=58
2G]	2d]	2g]	2b]
2G	2d	2g	2b
1G	1d	1g	1b
=59	=59	=59	=59
1E	1e	1g	1b
[1F	[1c	[1f	1a
=60	=60	=60	=60
2F]	2c]	1f]	4a
.	.	.	4g
4E	2d	.	4a
4D	.	.	4b
[1C	[1e	[1g	[1cc
=61	=61	=61	=61
1C]	1e]	1g]	1cc]
2r	2r	2r	2r
2c	2e	2g	2cc
=62	=62	=62	=62
1c	1e	1g	1cc
1G	2d	1g	1b
.	[2e	.	.
=63	=63	=63	=63
1A	4e]	1.e	1.cc
.	4d	.	.
.	4c	.	.
.	4B	.	.
1A	2c	.	.
.	2c	2f	2cc
=64	=64	=64	=64
*M3/1	*M3/1	*M3/1	*M3/1
*met(C|3)	*met(C|3)	*met(C|3)	*met(C|3)
0G	0d	0g	0b
1r	1r	1r	1r
=65	=65	=65	=65
1C	1e	1g	1cc
1C	1e	1g	1cc
1C	1e	1g	1cc
=66	=66	=66	=66
1.G	0d	0g	1.b
2F	.	.	2a
1E	1e	1g	2b
.	.	.	2cc
=67	=67	=67	=67
0D	0f	0a	0dd
[1A	1e	1a	1cc
=68	=68	=68	=68
1A]	1c	1f	0cc
0G	0d	0g	.
.	.	.	1b
=69	=69	=69	=69
0C	0c	0e	0cc
1r	1r	1r	1r
=70	=70	=70	=70
1C	1e	1g	1cc
1C	1e	1g	1cc
1C	1e	1g	1cc
=71	=71	=71	=71
1.G	0d	0g	1.b
2F	.	.	2a
1E	1e	1g	2b
.	.	.	2cc
=72	=72	=72	=72
0D	0f	0a	0dd
[1A	1e	1a	1cc
=73	=73	=73	=73
1A]	1c	1f	0cc
0G	0d	0g	.
.	.	.	1b
=74	=74	=74	=74
*M2/1	*M2/1	*M2/1	*M2/1
*met(C|)	*met(C|)	*met(C|)	*met(C|)
0C	1c	2e	[0cc
.	.	2c	.
.	2r	4c	.
.	.	4d	.
.	[2c	4e	.
.	.	4f	.
=75	=75	=75	=75
2r	4c]	2.g	1cc]
.	4d	.	.
4C	4e	.	.
4D	4f	4f	.
4E	2.g	2e	1r
4F	.	.	.
[2G	.	2d	.
.	4f	.	.
=76	=76	=76	=76
4G]	4d	0r	0r
4F	4e	.	.
2D	4f	.	.
.	4g	.	.
2F	2a	.	.
2G	[2g	.	.
=77	=77	=77	=77
1A	2g]	2.c	1r
.	2f#i	.	.
.	.	4d	.
[1G	2g	4e	2r
.	.	4f	.
.	[2d	[2g	4g
.	.	.	4a
=78	=78	=78	=78
1G]	4d]	4g]	4b
.	4e	4f	4cc
.	4f	4d	1dd
.	4g	4e	.
1r	2a	4f	.
.	.	4g	.
.	[2f	[2a	[2cc
=79	=79	=79	=79
0r	2f]	2a]	4cc]
.	.	.	4b
.	2g	1g	4a
.	.	.	4g
.	1d	.	1a
.	.	2f#i	.
=80	=80	=80	=80
1r	0e	1g	2r
.	.	.	2.g
2r	.	2r	.
.	.	.	4a
4G	.	[2g	4b
4A	.	.	4cc
=81	=81	=81	=81
4B	2.d	2g]	2.dd
4c	.	.	.
2.d	.	2f	.
.	4e	.	4cc
.	4f	2d	4a
4c	4g	.	4b
2A	2a	[2e	4cc
.	.	.	4dd
=82	=82	=82	=82
2c	2g	2e]	2ee
2d	2f	2.a	1dd
1e	1g	.	.
.	.	4g	.
.	.	[2g	2cc
=83	=83	=83	=83
1d	1a	2g]	1.dd
.	.	2f#i	.
1G	1g	1g	.
.	.	.	4cc
.	.	.	4b
=84	=84	=84	=84
1A	2.c	2e	1cc
.	.	2f	.
.	4d	.	.
1G	4e	2g	1b
.	4f	.	.
.	[2g	2d	.
=85	=85	=85	=85
2.C	4g]	4e	2r
.	4f	4d	.
.	1e	4e	2.g
4D	.	4f	.
4E	.	2.g	.
4F	.	.	4a
[2G	[2d	.	4b
.	.	4a	4cc
=86	=86	=86	=86
4G]	2d]	4b	4dd
4F	.	4cc	4ee
2D	1a	2dd	2.ff
2F	.	2cc	.
.	.	.	4ee
2G	2g	2b	[2dd
=87	=87	=87	=87
1A	4f	2a	4dd]
.	4e	.	4cc
.	4d	2f	1cc
.	4c	.	.
1G	1d	1g	.
.	.	.	2b
=88	=88	=88	=88
00Cl	00cl	00el	00ccl
==	==	==	==
*-	*-	*-	*-
!!!system-decoration: [*]
!!!RDF**kern: i = editorial accidental
!!!RDF**kern: l = terminal long
!!!ENC: Benjamin Ory
!!!END: 2025/1/30
!!!EED: Benjamin Ory
!!!EEV: 2025/01/30
!!!YEC: Copyright 2025 Benjamin Ory, All Rights Reserved
!!!ONB: Translated from MusicXML on 2025/01/30